X:661
T:Scotch Mist
S:Colin Hume's website,  colinhume.com  - chords can also be printed below the stave.
Q:1/4=120
M:C
L:1/8
K:C
[| E>F | "C"G>E G<c "F"A>F A<c | "G7"B>c d>B "C"c2 e2 | "F"f>e f>a "C"g>e d>c | "Dm"A<A f>e "G"d2 E>F |
"C"G>E G<c "F"A>F A<c | "G7"B>c d>B "Am"c2 e2 | "Dm"f>e f>a "C"g>e d>c | "Dm"A>f "G7"e/d/c/B/ "C"c2 e>f |
"C"g>a g>e "Am"c>d e>c | "Dm"f>g a>f "G7"d2 e>f | "C"g>a g>e "C7"c>d e>c | "F"A<A f>e "G7"d2 E>F |
"C"G>E G<c "F"A>F A<c | "G7"B>c d>B "Am"c2 e2 | "Dm"f>e f>a "C"g>e d>c | "Dm"A>f "G7"e/d/c/B/ "C"c2 |]

